X: 8569
T: Crock Of Gold, The
R: reel
M: 4/4
K: Amajor
|:c3e cBAF|A3B AFEA|EFAB cBAB|c2ec cBB2|
c2Be cBAF|A3B AFE2|a2ga faec|EFAB cAA2:|
|:fbb2 fbaf|b2fb afef|afec ABce|f/g/aec cBB2|
fbb2 fbaf|b2fb afef|a2ga faec|EFAB cAA2:|

